setcps 1.2

d1 $ every 2 (ghost' 0.25) $ jux rev $ s "sn:1 [hh*4, jvbass*2]" # gain 1.1

d2 $ stut 2 0.7 0.6 $ jux (rev . (fast 2 .(# speed "2 3"))) $ n "1" # s "pad"
 # legato "<0.5 0.2 0.2>"
 # attack "<0.7 0>"
 # sustain "<0.6 0 0 0>"
 # release 0.8

d2 $ jux rev $ off 0.25 (# up "-0.2") $ s "arpy*4"
 |-| speed (run 3)
 # room 0.3
 # degrade (range 0.2 0.4 $ slow 2 $ square )
 # lpf (range 200 2000 $ slow 2 $ sine )


hush
