setcps 1

hush

d1 $ s "[sn:1(3, 8), 808:3, hh*4]"

d2 $ jux rev $ off 0.25 (# up "-0.2") $ s "arpy*4"
 |-| speed (run 3)
 # room 0.3
 # degrade (range 0.2 0.4 $ slow 2 $ square )
 # lpf (range 400 2000 $ slow 2 $ sine )

d3 $ superimpose (# speed 0.4) $ jux (ghost' 0.25 . (zoom (0.25, 0.75))) $ s "arpy*8" # n (run 3)
 # speed "<0.6 0.8>"


hush
