setcps 1

d1 $ jux (loopAt 2.5) $ loopAt 2 $ s "foo"
 # speed "1"

d2 $ palindrome $ s "moog"
 # accelerate "-0.5 0.5"
 # legato 0.6
 # gain 1.1

d3 $ chop 2 $ s "blip(3,9)"
 # speed "<2 1>"
 # gain 1
 # room 0.3
 # accelerate "-1.2"

hush
