setcps 1

d1 $ superimpose (slow 4) $ jux rev $ superimpose (brak) $ stut 2 0.8 0.2 $ s "moog*2"
 # up "<2 2 2 1 2 2 2 4>"
 # legato 0.3

d2 $ s "stab"

d3 $ s "breaks125"
 # gain "<1 1.2>"
 # pan "-1 1"

d4 $ palindrome $ s "superpiano"
 # gain "<1 1.2 1.4>"

 unsolo 1

 hush
