setcps 1

d1 $ s "bd*2"

d2 $ jux rev $ iter 3 $ n (run 2) # s "casio"

d3 $ superimpose (slow 2 . (# speed 2)) $ superimpose (fast 4) $ every 4 (fast 2 ) $ s "moog"
 # legato 0.2
 # speed "<1 1 1 1.2>"
 # room 0.1

hush
