setcps 1

d1 $ s "[bd*2, cb/2, cp]"

d2 $ superimpose (slow 2 . (# accelerate 1)) $ brak $ stut 2 0.7 0.5 $ s "moog"
 # legato 0.3
 # speed "<-1 -1.2 -1.4>"
 # gain "1 1 1 1.2"

d3 $ brak $ s "arpy*4"
 # speed "2 3 2 <3 3 1>"
 # room 0.3
 # pan (rand)

d3 $ brak $ s "arpy*4"
 # speed "4 3 2 <3 3 1>"
 # room 0.3

d3 $ brak $ brak $ s "arpy*4"
 # speed "2 3 4 <3 3 1>"
 # room 0.3

hush
