setcps 1.2

d1 $ superimpose (slow 2 . (chop 2)) $ jux rev $ brak $ n (run 4) # s "sn bass"
 # speed "<1 0.5>"
 # gain 1.1

d2 $ echo 2 0.4 0.75 $ superimpose (slow 4 . (# speed "<-2 -2 -4>")) $ fast 2 $ palindrome $ s "choir*2"
 # speed "1 2"
 # legato 0.4

hush
