setcps 1

d1 $ superimpose (slow 2 . (|-| speed 1)) $ jux rev $ s "arpy*2 ~ [arpy*2] ~"
 # speed "-1 -0.8 -1 <-0.3 -0.3 -0.3 -1.4> -1"
 # lpf "<800 1200 2800>"

d2 $ n (run 4) # s "808"

d3 $ s "bd:1*2"

d4 $ stut 4 0.2 0.7 $ s "arpy"
 # gain 1.1
 # speed "<-2 -2 -0.6 -2>"
 # distort 0.4

hush
