setcps 1


d1 $ chop 2 $ palindrome $ s "superchip" # freqbus 0 (segment 48 $ smooth "100 120 130 <50 200>")
 # legato 0.6

d2 $ s "[bd*2, cp]" # gain 1.1

d3 $ spin 2 $ stut 4 0.5 0.7 $ s "arp:1"
 # speed "<2 0.6>"
 # legato 0.5

 hush
