setcps (80/60)

d1 $ jux (chop 2 . (slow 2 . (# speed 2))) $ every 4 rev $ slow 2 $ s "arp*2" # n "0 1"
 # gain "0.7"


d2 $ every 2 rev $ jux rev $ chop 2 $ s "<arpy:1 arpy> <arpy:2 blip>" # speed "-0.75 -0.25 <-1 -2> -0.25"
 # legato 0.6
 # delay "0.3"
 # lpf (range 200 3000 $ slow 2 $ sine)
 # room 0.5
 # up "1"

d3 $ slow 2 $ s "[bd cp, bass*2, blip:1]*2"

d4 $ s "jvbass:2*4" # lpf (range 200 3000 $ sine) # lpq (range 0.2 0.6 $ slow 4 $ sine)

hush

d2 silence
