setcps 1

d1 $ jux rev $ s "sn:1 [hh*4, jvbass*2]"

d2 $ stut 2 0.7 0.6 $ jux (rev . (fast 2 .(# speed "2 3"))) $ n "1" # s "pad"
 # legato "<0.5 0.2 0.2>"
 # attack "<0.7 0>"
 # sustain "<0.6 0 0 0>"
 # release 0.8
