setcps 1.2

d1 $ s "bass*4"
 # speed "1 1.8"
 # room 0.3
 # lpf (range 400 3200 $ slow 2 $ sine)

d2 $ s "[<bd:1 casio>, hh*6]" # gain 1.1

d3 $ off 0.25 (# speed "<0.4 0.6>") $ jux rev $ chop 2 $ n "1" # s "arpy"
 # room 0.3
 # sustain 0.6
 # speed "<0.5 1 0.5 3>"
