setcps 1.1

d1 $ s "[808bd*2, 808(3,8)]"

d2 $ jux rev $ every 2 brak $ chop 2 $ s "jvbass*2 jvbass"
 # speed "<1 1.2 0.8 1 1>"
 # gain "1 0.9"

 d3 $ off 0.25 (slow 4 . (# speed "3")) $ every 4 (chop 2) $ s "arp:1*2"
  # attack 0.4
  # sustain 0.6
  # release 0.9
  # speed "<1 1.2 0.8 1 1>"
  # gain "0.9 1"

 d4 $ every 4 brak $ jux rev $ whenmod 8 4 (fast 2) $ echo 3 0.6 0.7 $ s "<arpy arpy:1>"
 # speed "<1 0.8 7 0.6>"

 hush
