setcps 1.1

d1 $ s "[808bd*2, 808(3,8)]"

d2 $ jux rev $ every 2 brak $ chop 2 $ s "jvbass*2 jvbass"
 # speed "<1 1.2 0.8 1 1>"

d3 $ slow 4 $ superimpose (spin 2) $ stut 2 0.5 0.7 $ s "superchip" # n 1
 # gain 0.9
 # attack "<0.4 0.5>"
 # sustain 1.1
 # release 0.5
 # speed "<2 1 4 2 2>"

 d4 $ every 4 brak $ jux rev $ whenmod 8 4 (fast 2) $ echo 3 0.6 0.7 $ s "<arpy arpy:1>"
 # speed "<1 0.8 1 1>"

 hush
