setcps 1

-- setcps 1
d2 $ jux rev $ s "[hh sn/2]*12 ~ ~ bd hh*8 [~ bd]*4 ~ sn:1"
 # speed (range 0.8 1.2 $ slow 4 $ sine)
 # room 0.2
 # decay 0.3
 # cutoff "<600 2400>"

d1 $ chop 2 $ s "supersquare*4" # n "4"
# vowel "a e i e a i"
|/| speed "2.2"
# distort "0.4"

hush
