setcps 1

d1 $ slow 2 $ spin 3 $ iter 3 $ weave 8 (sound "[blip <arpy arpy:1>]*2")
  [speed "0.6 0.4 0.2 1",
  speed "0.6 0.4 0.8",
  speed "1.4 1.8 0.8 0.6"]

d1 $ silence

d2 $ sound "bd(<2 3>,8) sn:1"

d3 $ spin 2 $ s "hh:1 hh" # speed "-0.4"
 # gain (range 0 1.2 $ slow 2 $ sine)

hush
