-- start at cps 1 and get faster
cps (1)

d1 $ superimpose (# speed (run 4)) $ sometimesBy (1/3) (# vowel "e a") $ jux (# cutoff (scale 400 2200 $ slow 2 $ sine1)) $ palindrome $ every 2 (slow 2 . (chop 2)) $ chop 2 $ stut 2 1.6 0.4 $ jux (slow 2 . (chop 2)) 
 $ sound "arpy*2" # speed "0.4"
 # orbit "1"
 # room "0.5"


d2 $ every 2 (jux (density 2. (rev))) $ sound "[drum*2, jvbass, [cp*2] ~]" # gain "1.1"

hush
