cps (105/60)

d1 $ sound "bd"

d1 $ silence

d2 $ slow 2 $ stut 2 0.7 0.8 $ sound "t:1*4"
|+| speed "1 1.8 1.5"

d2 $ silence

d3 $ every 2 (brak) $ sound "bd ~ ~ sn:2"

d4 $ chop 2 $ every 3 (|+| speed "1 1") $ slow 4 $ sound "choir:2*2"
|+| speed "1 1.4"

d4 $ silence

d5 $ sound "[t:1 ~ ~]*2"
|+| speed "-1 1"

hush


