d1 $ every 2 (|+| speed "1.2 1.4") $ slow 2 $ every 2 (trunc 0.25) $ chop 4 $ sound "tb303*2"
|+| speed "-0.8 -0.6"
|+| begin "0.25"
|+| gain "1"
|+| delay "0.7"

d2 $ every 2 (|+| speed "[0.1 0.3 0.2]/2") $ jux (|+| speed "0.2")
$ every 2 (rev) $ weave 12 (sound "casio*8") [shape "[0.2 0.4 0.6]*2", shape "[-0.3 -0.4 0]*2"]
|+| speed "0.6 0.5 0.4 0.3 0.3"
|+| gain "1"
|+| delay "0.4"


d2 $ sound "blip"

d3 $ density 2 $ sound "[hh*2] drum"
|+| gain "1.2"

hush
