d2 $ every 4 (superimpose (striate 2 . (# speed "1.5"))) $ slow 4 $ striate 8 $ jux (# speed "-1.1") $ sound "choir*2"
 # gain "1"
 # delay "0.3"

d1 $ every 4 (iter 2) $ within (0.5, 1) (chop 2) $ sound "[bass arpy, drum sn:1]" # speed "1 0.5"

d3 $ slow 4 $ sound "choir" # speed "<1 3 2>"

d4 $ whenmod 8 4 (rev) $ every 4 ((1/3) ~>) $ n (run 3) # s "piano" # gain "1.2"

hush
