d2 $ striate 3 $ iter 4 $ palindrome $ n "1 2 3 4" # sound "arpy" # speed "0.5 1 1 0.5"
# room "0.9 0.5"
# vowel "a e i"
# shape "0.5"
# crush "2 8 4 8 2 8 4 8"
# gain "0.8"
# orbit "1"

d3 $ iter 2 $ n "0 1 2" # s "numbers" # cut "1"
# speed "7"
# room "0.9"
# shape "0.7 0.8"
# crush "2 8 6 8 4 8 2 8"
# orbit "1"
# gain "0.8"
