d1 $ iter 2 $ slow 4 $ superimpose (density 1.5) $ sound "[[bd sn]*2]*4"
|+| delay "0.2"
|+| speed "1 0.8 0.7 1"

d4 $ sound "sn:1*2"

d2 $ jux (|+| speed "3 4 3 3 4 2") $ slow 4 $ trunc 0.5 $ every 4 (|+| speed "0.8 1 1.2 0.8") $ striate 2 $ sound "acid*8"
|+| begin "0.2"
|+| speed "-2"
|+| gain "0.9"

d3 $ slow 32 $ chop 16 $ stut 4 0.8 0.4 $ sound "t:1*16"
|+| speed "0.8"
|+| gain "1 0"

cps (1)


hush
