cps (1.25)

d1 $ within (0.5, 0.75) (# speed "0.6") $ chop 2 $ sound "[bass, drum, can(4,3), cp/2]"

d2 $ superimpose (# cutoff (scale 1000 2200 $ slow 4 $ sine1)) $ jux (every 4 (0.5 ~>) . (slow 1.5 . (# speed "0.8 0.8 1 2"))) $ chop 12 $ sound "acid*4" # begin "0.2"
 # pan "-1 1"

solo $ d3 $ jux (slow 1.5 . (chop 2)) $ superimpose (stut 2 0.75 0.5 . (# speed "<8 -4 -4 12>")) $ striate 3 $ sound "tb303"
 # gain "1.2"
 # cutoff "1200 800"

 hush
