d1 $ every 4 (|+| speed "0.6 0.4") $ every 2 (trunc 0.25) $ slow 2 $ chop 4 $ sound "tb303*2"
|+| speed "0.6 1.2"
|+| begin "0.15"
|+| gain "1.2"

d2 $ every 2 (brak) $ sound "drum sn:1"
|+| gain "1"

hush
