d1 $ slow 2 $ stut 4 0.25 0.5 $ sound "blip*2"
|+| speed "-1 -2"

d2 $ sound "[bass*2] drum bass sn:1"
|+| gain "1"

solo $ d3 $ spread (slow) [2, 1.5] $ sometimesBy (1/3) (rev) $ jux (density 1.5 . (|+| speed "0.5 1")) $ sound "blip*2"
|+| speed "0.3"
|+| delay "0.3"

d3 $ silence

cps (70/60)

hush
