d1 $ every 4 (|+| speed "3.2") $ stut 2 0.25 0.75 $ striate 2 $ sound "jvbass*2"
|+| speed "1 0.8"
|+| gain "1"

d2 $ sound "bd:1*2"
|+| speed "0.6"

d3 $ every 4 (|+| gain "0") $ striate 4 $ sound "osc*4 ~"
|+| speed "1 2 1 2"

d3 $ silence

d4 $ iter 3 $ sound "[sn sn:1] [hh*2]"
|+| gain "1.2"

cps (95/60)

hush
