d1 $ iter 4 $ whenmod 8 6 (const $ sound (samples "arpy*4" "0 1 2 3") |+| delay "0.5" |+| delaytime "0.1" |+| delayfeedback "0.8" |+| room "0.9" |+| size "0.9" # orbit "1" # crush " 16 16 8 4")
   $ whenmod 4 2 (const (chop 3 (up "1 2 3 4 5 6 7 8" # (striate 4 (sound "sd:111" # cut "1")))))
   $ rarely (striate 3) $ every 4 (# speed "2")
   $ every 3 (# pan "1 0 1 0")
   $ sound "{cp cp cp ~ cp cp ~ cp ~ cp cp ~}%8"
   # crush (scale 8 16 $ rand)

   hush
