d1 $ superimpose (echo (1/2) . (density 2 . (# speed "4"))) $ chop 2 $ sound "tb303"
 # cutoff (scale 600 2600 $ slow 2 $ sine1)
 # delay 0.03

d2 $ every 4 (spread (density) [2, 4] . (trunc 0.5)) $ sound "[drum*2 ~ [bass*2 ~], bd sn:1]"

d3 $ every 4 (striate 3 . (# up "-2")) $ weave 24 (sound "tb303*2") [
 speed (run 4),
 density 1.5 $ chop 2 $ speed "2 4 8",
 whenmod 8 4 (rev) $ slow 4 $ stut 4 0.4 0.25 $ speed "8 <6 10>" # gain 1.4
]
 # cutoff 2000
 # gain 1.2
 # orbit 1
 # room 0.3

 hush
