d1 $ every 2 (palindrome) $ jux (chop 4) $ slow 2 $ off 0.125 (# speed (saw1 +1)) $ sound "<yow>*4"
 # speed (saw1 + (choose [0.5, 0.5, 0.5, 2, 1]))
 # gain 1.3
 # room 0.5
 # cutoff (scale 400 2000 $ slow 2 $ sine1)

d2 $ every 2 (jux (brak)) $ sound "[cp drum, bass(3,8)]"

d3 $ sometimesBy 0.25 (trunc 0.5) $ chop 2 $ sound "tb303*4"
 # begin 0.2
 # vowel "e a a e"
 # gain 1.2
