cps (0.95)

d1 $ rev $ every 8 (jux (|-| speed "1"))
 $ every 2 (trunc 0.5) $ every 8 (const $ sound "tb303*3 cp" # speed (run 3)) $ every 4 (striate 8 . (# speed (run 3))) $ jux (slow 1.5) $ chop 2 $ sound "tb303"
 # orbit "1"
 # room "0.3"
 # delay "0.1"
 # gain "1.2"

d2 $ sound "[drum*2, hh(5, 8), bass0:1/2,]"

d3 $ every 4 (jux (rev . (density 2 . (|*| speed "2")))) $ sound "{arpy arpy:1}*2" # speed "<0.2 0.3 1>"
 # orbit "1"
 # pan "-1 1"

solo $ d4 $ whenmod 8 4 (slow 2) $ jux (slow 1.5 . (chop 4)) $ n (irand 2) # s "<sn bd>"
 # speed (scale 0.5 3 $ slow 4 $ sine1)
 # pan "<-1 1>"
 # gain "1.2"

d5 $ juxBy (1/3) (striate 2 . (# speed "2")) $ sound "tb303:3"
 # cutoff "600"
 # gain (scale 1 1.2 $ sine1)

d5 silence

hush
