setcps 1.2

d1 $ slow 4 $ scramble 10 $ chop 3 $ s "[plsnare*12] [[plsnare:1 plkick]*16]"
 # pan "-1 1"

d1 silence

d2 $ slow 16 $ scramble 3 $ striate 38 $ stut 8 0.2 0.6 $ sound "plstalk"
 # speed 0.2
 # gain "<1 1.2>"

hush
