d1 $ every 6 (rev) $ every 2 (chop 2 . (|+| speed "1.2 1 0.8 1.2")) $ every 2 (stut 2 0.25 0.45) $ sound "t*2 hh t"

d3 $ sound "jvbass"

d3 $ silence

d2 $ every 2 (density 2) $ density 2 $ sound "drum"

cps (75/60)
