d1 $ every 2 (slow 2) $ sound "jvbass*3 ~"
|+| speed "0.8 0.6 0.4"

d2 $ slow 2 $ sound "jvbass*2"
|+| accelerate "2"

d3 $ density 2 $ sound "[hh:1 sn:1]"

d4 $ slow 4 $ stut 2 0.9 0.25 $ sound "blip blip:1 blip blip:1"
