d1 $ density 2 $ sound "[hh*2 drum]"

d1 $ silence

d2 $ sound "tb303:1"
|+| shape "0.4"

d2 $ silence

d3 $ sometimesBy (1/3) ((|+| speed "-0.4")) $ density 2 $ every 4 (trunc 0.5) $ sound "cp:1"
|+| shape "0.2"

d4 $ jux (|+| speed "1 1 4 1") $ every 4 (0.25 ~>) $ every 2 (density 2 . (|+| accelerate "-0.4")) $ sound "jvbass*4"
|+| speed "3 3.2 3.8 4"

d4 $ silence

d5 $ sound "sn:2*2 drum [hh:1*2] bass"

hush
