$ d1 $ every 2 (|+| speed "1 1.8") $ density 2 $ sound "[drum sn:1]/2 bass (4,3)"

d2 $ rev $ weave 4 (speed "0.5 1 0.7") [(slow 2 $ sound "[t:2 [t:2*2]] ~"), (every 2 (density 2) $ sound "kurt:1*2")]

d3 $ chop 4  $ every 2 (brak. (|+| speed "-1.2")) $ weave 12 (sound "tb303*4") [speed "1", accelerate "2", accelerate "0.8", speed "2"]
|+| end "0.4"

cps (78/60)

hush
