cps (1.15)

d1 $ slow 4 $ stut 4 0.5 0.7 $ jux (palindrome . (density 2 . (# speed "1.2 1.4"))) $ sound "tb303:3*2" # begin "0.3"

d2 $ slow 4 $ echo (1/3) $ striate 6 $ sound "tb303:3" # begin "0.2" # speed "0.6" # gain "0.8"

d3 $ every 2 (rev) $ sound "[drum sn:1, hh*4, kick ~ cp]" # gain "1.2"

d1 $ jux (iter 2) $ slow 2 $ sound "t:1*12" # up (scale 0.4 1 $ sine1)
|+| speed "1 2"

d1 silence

hush
