d1 $ every 4 (0.25 <~) $ sound "drum sn:1 [casio:1*2] sn:1"
|+| speed "1 1 0.3 1"

d2 $ every 4 (density 2 . (|+| speed "1.4")) $ every 2 (stut 2 0.5 0.7) $ sound "tb303"
|+| speed "0.25"
|+| accelerate "1.5"
