d1 $ jux (spin 2) $ sound "jvbass*3"
|+| speed "1.2 1.6 1.4"
|+| gain "1"

d2 $ every 6 (rev) $ every 4 (density 2 . (|+| speed "1.4")) $ every 2 (stut 2 0.5 0.7) $ sound "tb303"
|+| speed "0.25"
|+| accelerate "1.5"
|+| gain "1"

d2 $ silence

d3 $ density 2 $ sound "[hh*2] drum"

hush
