cps (1.15)

d1 $ whenmod 8 4 (# speed "1.2") $ every 2 (brak . (rev)) $ chop 2 $ n "0 1" # s "bass" # gain "1.2"

d2 $ sound "[[drum*2], can*4]" |-| speed (run 3)

d3 $ every 4 (superimpose (# speed "-1")) $ density 1.5 $ jux (slow 1.5 . (chop 4 . (# speed "2"))) $ sound "t:2" # speed "0.5" # delay "0.4"
