cps (1.2)

d1 $ every 8 (brak) $ every 4 (rev) $ echo (1/3) $ juxBy 0.3 (slow 1.5 . (stut 2 0.7 0.7)) $ stut 8 0.75 0.9 $ slow 2 $ sound "piano:2 ~ piano ~"

d2 $ density 2 $ trunc 0.5 $ slow 2 $ sound "tb303:3*2" # speed rand # accelerate "1" # gain "0.8" # begin "0.3"

d3 $ slowspread ($) [rev, (# gain "0"), density 2] $ n "0 0" # s "future cp"

d3 $ sound "[bass drum, [hh:1*2] cp]"

hush
