cps (1.15)

d1 $ whenmod 8 4 (# speed "1.2") $ every 2 (brak . (rev)) $ chop 2 $ n "0 1" # s "bass" # gain "1"

d2 $ sound "[[drum*2], hh*4]" # delay "0.3"

solo $ d3 $ palindrome $ every 8 (# vowel "e i") $ every 4 (superimpose (# speed "-1")) $ density 1.5 $ every 4 (brak) $ jux (slow 1.5 . (chop 4 . (# speed "2"))) $ sound "t:2" # speed "0.5" # delay "0.4"

d4 $ striate 8 $ sound "hh:1 blip" # speed "-0.5" # gain (scale 0.5 0.9 $ slow 2 $ sine1)

hush
