d1 $ whenmmod 8 4 (rev) $ jux (degrade . (|*| speed "2")) $ sometimesBy (1/3) (within (0.66, 1) (# up "1")) $ jux (density 1.5) $ sound (choose ["blip", "blip:2", "arpy", "arpy:1"])
 # speed "0.8 1.2"
 # coarse "50 25"

d2 $ every 2 (density 2 . (zoom (0.25, 0.75))) $ sound "{[bd:1(3,9), hh*4, sn:1*2, techno*2]}*2"
 # orbit "1"
 # resonance "0.3"

d2 $ every 2 (density 2 . (rev)) $ chop 2 $ superimpose (stut 4 0.6 0.9 . (slow 4)) $ sound "[drum gabba/2, sn:1, cp/2]"

hush
