d1 $ slow 2 $ stut 4 0.5 0.7 $ sound "hh:1"
|+| speed "-0.8"

d1 silence

d2 $ slow 2 $ weave 16 (sound "syn")
  [speed "1 0.8",
  speed "1.2 1.4 1.2 1",
  speed "2 1.8 1 1.6 1 1"]
  |+| gain "1"

d3 $ stut 2 0.6 0.25 $ sound "hh:1 drum"
|+| delay "0.7"

d4 $ slow 2 $ stut 3 0.7 0.4 $ sound "newnotes"
|+| speed "1.2"

d4 silence
