d1 $ density 2 $ every 2 (iter 3) $ sound "drum hh:3"

d2 $ sometimesBy 0.25 (slow 2 . (spin 2)) $ density 2 $ every 2 (|+| speed "0.8 0.9 1 1")$ sound "t:1*4"
|+| gain "0.8"
|+| speed "-1.4 1.4"

d3 $ every 2 (density 2 ) $ sound "cp:2"

hush
