d1 $ every 2 (0.5 ~>) $ slow 2 $ stut 2 0.5 0.75 $ s "newnotes*4" # n "2 3 0 2"
|+| speed "-1"
|+| gain "1.4"
|+| shape "0.3 0.5 0.4 0.2"

d2 $ density 2 $ every 4 (density 2) $ sound "drum sn:2"

hush
