cps 0.85

d1 $ every 4 (striate 2) $ every 2 (striate 2) $ every 2 (rev . (density 2 . (zoom (0.25, 0.75)))) $ s "invaders*4" # n "1 1 3 2"
|+| speed "0.9"
|+| pan "-0.4 0 0.4"

d2 $ sound "[kick*2, bass*4, cp]"
|+| gain "1.1"

hush
