d1 $ slow 2 $ stut 4 0.5 0.5 $ striate 2 $ n "0" # s "80z" # speed "0.4"

d4 $ every 4 (rev) $ rev $ slow 2 $ brak $ sound "80z*4" |-| speed "0.5" |+| speed (run 3)

d4 silence

d3 $ every 4 (|=| speed "-1 -1.1") $ striate 2 $ every 2 (rev) $ sound "ebass*2" # gain "0.9" |=| speed "1 1.1" # resonance "0.3"

d2 $ superimpose (slow 1.5) $ brak $ sound "[drum*2, drum:1 ~ hardcore]"

hush
