d1 $ stack [sound "drum*2" |+| gain "1.4",
      (every 4 (interlace (stut 4 0.6 0.5 $ every 4 (brak) $ sound "casio:1*2" |+| speed "0.6")) $ density 2 $ sound "hh:2*2")]

d2 $ density 1.5 $ every 4 (rev . (striate 2)) $ sound "[pacman [bass*2]]*2"
|+| speed "1.4 1 2"
|+| accelerate "-0.5 -0.5"

hush
