d1 $ slow 2 $ stut 4 0.5 0.5 $ striate 2 $ n "0" # s "80z" # speed "0.4"

d4 $ whenmod 8 4 (rev) $ slow 2 $ brak $ sound "80z*4" # up (run 3)

d3 $ striate 2 $ every 2 (rev) $ sound "ebass*2" # gain "0.9" |=| speed "1 1.1"

d2 $ superimpose (slow 1.5) $ brak $ sound "[drum*2, drum:1 ~]"
