d1 $ jux (|+| speed "1") $ every 4 (striate 2) $ sound "wobble*2"
|+| speed "1.4"
|+| shape "0 0.5 0"

d2 $ every 8 (const $ spread (density) [1, 2, 0.5] $ sound "[house]*8") $ palindrome $ sound "[can*2] ~ cb8 bd:1 cb8:1 ht8"

d2 $ every 4 (rev . (density 2)) $ sound "house cp"

d3 $ every 2 (|+| speed "1.2") $ striate 4 $ sound "hmm ~"
|+| speed "0.8"
|+| delay "0.4"
|+| vowel "o"

cps (1.25)
