d1 $ sound "kick bass kick*2 sn:1 bass kick"
|+| speed "0.8"

d2 $ stut 2 0.6 0.25 $ jux (|+| speed "1.2 1.4") $ weave 4 (speed "1 1.2 0.9 1.4") [sound "blip*4", echo (1/3) $ sound "blip:1" |+| delay "0.3"]
|+| speed "1 1.2"
|+| end "0.3"
|+| gain "0.9"

d2 $ silence

d3 $ every 4 (slow 2 . (|+| accelerate "-1")) $ stut 2 0.5 0.6 $ sound "invaders:4"
|+| speed "0.3"

hush
