cps (1.15)

d1 $ every 2 ((1/3) ~>)$ every 4 (zoom (0.25, 0.75)) $ superimpose (slow 2 . (rev)) $ n (run 3) # s "[gretsch(3,2)]*2"

d2 $ jux (iter 2 . (|=| speed "-0.6")) $ n "1 1 0" # s "trump" |=| speed "-0.8"

d2 $ slow 3 $ weave 8 (speed "0.6")
  [n "0 1 1 0" # s "trump" ,
  n "0 1 0 2 1 1" #  s "trump",
  n "3 3 1 4 1 3 2 4 3 4" #  s "trump" ]

hush
