d1 $ every 4 (brak) $ sound "[bd hh:1]"
|+| speed "1 1"

d1 $ silence

d2 $ brak $ sound "[cp*2]"

d2 $ silence

d3 $ sound "hh:1*2"
|+| speed "-0.5"

d4 $ sound "bd kick"
|+| speed "0.9"

hush

cps (75/60)
