hush

d1 $ spread (chop) [2, 1] $ every 12 (const $ density 2 $ sound "syn*2" |+| speed "1 0.8 0.6") $ sound "syn drum"
|+| end "0.25"
|+| speed "0.8 1"
|+| gain "1.2"

d2 $ jux (0.5 ~>) $ stut 2 0.8 0.7 $ striate 2 $ n "0 2 1 3" # s "arpy*4"
|+| speed "0.8"
|+| delay "-0.1"

hush
