cps (1)

d1 $ slow 2 $ weave 24 (sound (choose ["arpy" ,"arpy:1"]))
 [speed "1 2 2 1 0.8 2 2",
 slow 4 $ echo (1/2) $ every 2 (palindrome) $ speed "3 3 3 3 2 2 2 2",
 density 1.5 $ speed "2 0.8 0.6 0.4",
 chop 2 $ speed "0.6 0.4 0.6 0.8"]
 # room "0.2"

d2 $ jux (slow 2) $ slow 8 $ striate 4 $ sound "[tb303:3 ~]*4"
 # cutoff "1200"
 # speed (run 4)
 # gain "0.9"

hush
