d1 $ every 3 (0.25 ~>) $ every 4 (|+| speed (rand)) $ sound "[t(3,8), <t invaders:1>*2]"
 # speed "1 0.4"

d2 $ sound "drum*2"

d3 $ every 4 (rev . jux ((# speed "-1"))) $ every 2 (off 0.35 (# gain "0.9")) $ s "[can*4, <casio invaders:1>]"
 # shape (scale 0 0.3 $ slow 2 $ sine1)

d4 $ slow 2 $ sound "t*4"
 # gain "1.2"
 |-| speed (run 3)
