d1 $ every 4 (|+| speed "0.8") $ stut 2 0.6 0.5 $ sound "t:1*4"
|+| gain "1"
|+| speed "1 1.2 0.8 1.2"

d1 $ silence

d2 $ interlace (sound "jvbass") $ sound "jvbass*2"
|+| speed "1.2"

d2 $ silence

d3 $ every 2 (|+| gain "0") $ sound "hh:1*2"
|+| speed "-0.5"

d3 $ silence

d4 $ spread (striate) [2, 1] $ sound "sn:2 kick"
|+| speed "1 1"

d5 $ every 4 (|+| speed "0.8 1") $ rev $ every 4 (0.5 ~>) $ chop 4 $ sound "t:2"
|+| speed "0.4"
|+| gain "1"

d5 $ silence

hush

cps (50/60)
