d1 $ sound "[sn:1 sn:2] ~"

d2 $ every 2 (rev) $ sound "bd cp"

d3 $ every 4 (|+| speed "1") $ slow 4 $ spread (chop) [1, 2] $ sound "[t t]*2 [t*2]"
|+| speed "0.4 0.6"
|+| end "0.6"

cps (85/60)

hush
