d1 $ slow 2 $ striate 8 $ weave 4 (sound "moog*2") [shape "0.2 0.4", speed "3", speed "2"]
|+| gain "0.9"
|+| end "0.3"

d1 $ silence

d2 $ every 2 (density 2) $ sound "[bd:3 sn:1] 7/8"

d3 $ every 4 (superimpose (striate 4 . (|+| speed "3 0.9"))) $ rev $ sound "jvbass*4"
|+| speed "1 2 1 0.6 1"
|+| accelerate "1"

cps (40/60)

hush
