d1 $ jux (density 1.2) $ chop 2 $ n (irand 21) # s "drum"

d2 $ jux (# up "4") $ sound "bass1"

d3 $ every 4 (rev) $ spread (slow) [2, 4] $ sound "t:1(7,3)" # speed "0.5 2 1 3 1 2" # delay "0.4"

d3 $ jux (chop 2 . (|=| speed "3")) $ slow 2 $ weave 8 (sound "syn")
  [speed (run 3),
   palindrome $ speed "1.6 1.8 2 0.8 1 0.6 1 1.2",
   speed "0.5"]
  |+| gain "1.2"
  |+| cutoff (slow 2 $ scale 600 2000 $ sine1)

  hush
