d1 $ every 2 (rev) $ sound "cp bd:2"

d2 $ superimpose (slow 2 . (striate 4 . (|+| speed "2.4 2"))) $ slow 4 $ stut 2 0.8 0.6 $ chop 4 $ sound "tb303*2"
|+| end "0.2"
|+| speed "1 0.6"
|+| gain "0.5"

d2 $ silence

$ d3 $ every 2 (0.25 ~>) $ sound "bass*2"
|+| accelerate "2 -1"
|+| shape "0.2"

cps (80/60)

hush
