d1 $ every 4 (trunc 0.25) $ slow 2 $ sound "cp*2"
|+| speed "0.4"

d1 $ silence

d2 $ chop 2 $ sound "tb303:1"
|+| unit "c"
|+| speed "1"

d3 $ sound "bd*2"

d4 $ every 2 (|+| speed "1") $ striate 4 $ sound "t:1*2"
|+| gain "0.9"
|+| speed "2"

hush
