d1 $ sound "[bass bass]/2 [bass*2] [cp sn:1] [sn*2]"
|+| speed "0.8 1"

d2 $ slow 2 $ stut 2 0.5 0.25 $ weave 12 (sound "[blip blip:1]/2")
  [speed "1 1.2 1.4 1.8",
  speed "-1 1.2 1.4 1 1.8 2 -1 1.2 1.4 1 1.8 2",
  speed "0.5 0.5 1 0.5"
  ]

hush
