d1 $ slow 2 $ sound "tb303*4"
|+| speed "[[1 2]*2, 4 1]"

d1 $ sound "sn:1(5,8)"

d1 $ sound "[sn:1(3,4), drum(5,8)], [sn:2*2]"

d2 $ sound "sn:1(5, 16)"

/**/ yes!

d3 $ sound "tb303*3" # speed (scale 2 1 $ square1)

d4 $ palindrome $ sound "t:1*8" # cutoff (scale 300 600 $ slow 4 $ saw1) # resonance "0.4" # up "-0.2"

hush
