d1 $ every 4 (jux (|+| delay "0.2") . (iter 2)) $ slow 2 $ stut 2 0.2 0.8 $ weave 2 (sound "arpy*4")
  [speed "0.8 1.8 1.2 1",
  speed "0.8 0.8 1 1",
  speed "1 0.6"]
  |+| gain "0.8"

d1 $ silence

d2 $ every 4 (density 2. (|+| speed "1")) $ sound "jvbass drum cp drum"
|+| speed "1 1 -1 1"

d3 $ slow 2 $ striate 4 $ sound "tb303*2"
|+| speed "1.2 1"
|+| end "0.4"
|+| gain "1.2"
|+| delay "0.2"

cps (80/60)

hush
