cps (1.15)

d1 $ density 2 $ sound "[sn:1/2 hh*2, bd]"

d2 $ slowspread ($) [(# gain "1.1"), (# gain "1.2")] $ whenmod 9 3 (rev) $ every 2 (# speed (run 4)) $ every 2 (spread (chop) [2, 1]) $ sound "rbass*4" # speed "0.8"

d3 $ every 4 (zoom (0.5, 0.75)) $ sound "t:1*12" # gain "0.9" |*| speed ("1 2 1 3 2 1 2")
|+| cutoff (scale 600 1600 $ slow 2 $ sine1)


d3 silence
