
cps (1.15)

d1 $ every 2 (# speed "1") $ sound "[bd sn:1, bass:1 bass:2 ~]" # speed "0.9"

d2 $ slow 3 $ sound "stab:1*3" # up (run 2)

d3 $ every 2 rev $ iter 2 $ n "[1 1] 2 3" # s "stab" # shape (slow 2 $ scale 0 0.6 $ sine1)
|+| pan "-1 1"
