d1 $ stut 8 0.6 0.45 $ weave 4 (speed "0.6 0.8") [sound "arpy arpy:1",
  sound "[casio casio:1]/2",
  slow 2 $ chop 2 $ sound "tb303" |+| end "0.2" |+| vowel "e",
  sound "t*2"]
  |+| gain "0.9"

d2 $ every 2 (rev) $ sound "[hh*2] drum sn:3 bass"

cps (88/60)
