d1 $ sound "drum [hh*2] sn hh"

d2 $ every 2 (brak) $ sound "bass*2 ~ bass"
|+| speed "1"
|+| gain "1"

d3 $ jux (slow 2 . (|+| speed "0.6 0.8")) $ every 8 (density 2 . (trunc 0.5 . (|+| speed "2 1.4 1.2 0.8"))) $ whenmod 8 4 (iter 4) $ sound "[t:1 blip]*4"
|+| end "0.4 1"
|+| speed "-1 1.2 -0.8 -1.4 1 1 1.2"
|+| shape "-0.4 0 0 0.4"

hush
