d1 $ every 2 (rev . (density 2 . (striate 2))) $ sound "bd:3 sn:2"
|+| gain "1.2"

d2 $ sound "jvbass*4"
|+| speed "1 1 -1.4 1"

d3 $ every 4 (0.25 ~>) $ slow 2 $ sound "moog*4"
|+| end "0.2"
|+| vowel "a"
|+| speed "3 1.4 4"

d4 $ every 8 (rev . (density 2)) $ every 4 (|+| speed "0.5 0.7") $ slow 2 $ striate 2 $ stut 4 0.7 0.5 $ sound "casio ~ casio ~"
|+| speed "0.2 1"

cps (70/60)

hush
