d1 $ slow 2 $ juxBy (1/2) (slow 4 . (striate 8)) $ every 4 (fastspread slow [2, 3]) $ superimpose (slow 1.5 . (rev))
 $ sound "[sn:1*2, {bd drum:1*2 ~, hh*4, jvbass, [drum ~ bd]}]"

d2 $ slow 4 $ stut 4 0.5 0.25 $ weave 12 (sound "arpy arpy:1")
  [speed "0.5",
   speed "2 3 1 0.5",
   speed "[2 0.5 1 2 1]*2"
   ]
 # orbit "1"
 # gain "1.2"
 # room "0.2"

 hush
