d1 $ every 2 (jux (|+| vowel "e a")) $ every 4 (density 2) $ slow 2 $ striate 12 $ sound "pacman*12"
|+| accelerate "-1"

d2 $ every 2 (rev) $ sound "[cp*2] [sn:2 bd:1]*2(2,3)"
|+| speed "1 0.9"

hush
