d1 $ whenmod 12 4 (superimpose (|*| speed "2")) $ jux (slow 2 . (|*| speed "2")) $ stut 2 0.8 0.75 $ sound "bass(3,8)"
 # speed "1 1.2"
 # gain "1.2"
 # orbit "1"
 # room "0.3"

d2 $ every 12 (slow 2 . (# gain "1 0 1 0")) $ whenmod 8 4 (# cutoff (scale 800 1200 $ slow 2 $ sine1))
 $ jux (slow 2 . (# speed "-0.8")) $ chop 4 $ sound "{[sn:1 bd*2, bass*2, [drum:1? drum ~]*4]*2}" # speed "0.8"

hush
