d1 $ sound "sn:1 wobble [drum*2] wobble"
|+| speed "1 1.4 1 1.4"

d2 $ jux (striate 2 . (|+| speed "-1.8")) $ sound "wobble*2"
|+| accelerate "-1"

d2 $ silence

d3 $ sometimesBy (1/3) (|+| gain "0") $ slow 2 $ stut 4 0.7 0.4 $ every 4 (iter 3) $ sound "t:1*4"
|+| speed "0.4"

cps (80/60)

hush
