d1 $ superimpose (density 1.5 . (rev)) $ chop 2 $  sound "drum*2 drum:1 ~"
|+| gain "0.9"

d2 $ brak $ slow 2 $ (0.25 ~>) $ spread (chop) [64, 128, 256, 128] $ sound "bd"
|+| speed "0.6"
|+| resonance "0.5"
|+| room "0.4"

hush
