d1 $ sound "[bd*2, hardcore(3,8), {glasstap:1/2 jvbass}*2]"

d2 $ jux rev $ slow 4 $ chop 2 $ spread (slow) [2, 0.5, 1, 0.25] $ slowspread ($) [(# speed "1"), (# speed "-1"), (# speed "-2")]$ n "0 1 0 1" # s "drum bass"
 # speed "-1"
 # begin "0 0.2"
 # gain "0.9"


hush
