
d2 $ slow 4 $ jux (slow 1.5 . (chop 2)) $ iter 3 $ sound "[{sn:1 ~ drum can*2 ~ drum:1 sn:1 ~ bass*2}*16 ~ {sn ~ can*4 ~ drum sn:1 ~ jvbass*2}*8, {drum bass}*2]"

d2 silence

d1 $ sound "[[t hh:1 ~ ~]*16, [jvbass*2 drum]*2]"

d2 $ sometimesBy (1/4) (# coarse "0") $ whenmod 16 8 (|*| speed "2") $ every 4 (rev . (density 2 . (zoom (0.5, 0.8)))) $ n (slow 4 $ irand 3) # s "casio*2"
 # orbit "1"
 # coarse "50 <10 25>"
 # speed "0.5"

hush
