d1 $ slow 2 $ palindrome $ superimpose (slow 2 . (trunc 0.5 . (every 2 (chop 2 . (# speed "4"))))) $ sound "tb303:3*2" # speed "1 0.8"
 # gain "0.9"
 # room (scale 0 0.5 $ slow 2 $ sine1)

d1 silence

d2 $ sound (choose ["jvbass" , "t"]) # speed "1" # up (run 4)

d3 $ sound "[drum*2, hh*4]"
