d1 $ every 16 (const $ spread (density) [2, 1, 0.5] $ sound "drum:1*8") $ superimpose (density 1.5) $ sound "[drum sn:1, sn*2(3, 8), can*2 [drum:1]*2]"
|-| gain "0.8"

d2 $ striate 4 $ s "gabba*2" # n "0 1"
|+| gain "1.1"
|-| accelerate "1"

d3 $ palindrome $ juxBy 0.5 (slow 2 . (|+| speed "0.8 0.6 0.4")) $ slow 2 $ sound "syn*4" # up "1"
|+| gain "1.4"
