d1 $ every 16 (const $ rev $ spread (density) [1, 0.5, 0.25] $ sound "drum:1*8") $ superimpose (density 1.5) $ sound "[drum sn:1, drum*2(3, 8), can*2 [drum:1]*2]"
|-| gain "0.9"


d2 $ every 2 (iter 2) $ striate 4 $ s "[gabba*2, blip*4]" # n "0 1"
|+| gain "1.1"
|+| speed "[0.8 1.2]/2"
|-| accelerate "1"

d3 $ palindrome $ juxBy 0.5 (slow 2 . (|+| speed "1.8 0.6 0.4")) $ slow 2 $ sound "syn*4" # up "1"
|+| gain "1.4"
|+| speed "0.8"
|+| delay "0.3"
|+| pan "-1 0 1"

d3 silence

hush
