d1 $ slow 2 $ palindrome $ superimpose (slow 2 . (trunc 0.5 . (every 2 (chop 2 . (# speed "4"))))) $ sound "tb303:3*2" # speed "1 0.8"
 # gain "0.9"
 # room (scale 0 0.5 $ slow 2 $ sine1)

d1 silence

d2 $ sound (choose ["jvbass" , "t"]) # speed "1" # up (run 4)

d2 $ sound "jvbass*2"

d3 $ sound "[drum*2, hh*4, cp cp:1]"

d4 $ jux (slow 1.5 . (rev)) $ trunc 0.5 $ chop 2 $ sound "t:1*8" # speed (scale 0.5 3 $ sine1)
 # cutoff (scale 400 1600 $ slow 4 $ sine1)
 # delay "0.5"
 |-| speed "0.2"
