d1 $ every 2 (|+| speed "0.8 1.2") $ slow 2 $ every 2 (trunc 0.25) $ chop 4 $ sound "tb303*4"
|+| speed "-0.8 -0.6"
|+| gain "1"
|+| begin "0.2"

d1 $ silence

d2 $ density 2 $ sound "[hh*2] drum"

d3 $ jux (|+| speed "0.2") $ every 2 (rev) $ sound "casio*8"
|+| speed "0.4 0.5 0.6"
|+| shape "0.5 0.2 0.7"
|+| gain "0.9"

d3 $ silence

hush
