cps (1)

d1 $ every 4 (superimpose (striate 2 . (# speed "1.5"))) $ slow 4 $ striate 8 $ jux (# speed "-1.1") $ sound "choir*2"
 # delay "0.3"

d2 $ every 2 (iter 2) $ within (0, 0.5) (striate 2) $ sound "[bass arpy, drum sn:1]" # speed "1 0.5"

d3 $ sound "choir" # speed "<1 3 2>"

solo $ d4 $ palindrome $ n (run 3) # s "piano ~" # gain "1.2" # delay "0.3"
