cps (0.75)

solo $ d1 $ slow 4 $ echo (1/3) $ jux (iter 4 . (# vowel "a e o")) $ striate 2 $ slowspread ($) ([(density 2), (# speed "1.5"), (rev)]) $ sound "arpy*8" # speed "1"
 # cutoff (scale 800 1000 $ slow 2 $ sine1)
 # room "0.4"

d2 $ jux (0.25 ~>) $ every 2 (zoom (0.25, 0.5)) $ superimpose (palindrome) $ sound "[[jvbass sn:2], cp cp:1, bd(3,4)]" # delay "0.2"

hush
