d1 $ loopAt (choose [1, 4, 2]) $ sound "rave"

d2 $ density 1.3 $ sometimesBy 0.25 (striate 7) $ sound "rave"
 # end (choose [0.75, 0.2, 0.5])

d3 $ within (0.75, 1) (chop 2) $ sound "[foo, ebass*2 ebass:2]"
 # gain 1.2
 # orbit 1
 # room 0.3
 # size 0.2

d4 $ loopAt (1/4) $ whenmod 16 4 (off 0.2 (|*| speed 2)) $ sound "blip*2"
 # coarse "40"

hush
