d1 $ superimpose (slow 8 . (stut 4 0.5 0.8)) $ every 2 (jux (density 2))
  $ iter 2 $ spread ($) [(# speed "2"), (# speed "3")] $ n (run 4) # s "jvbass" # delay "0.4"

hush

d1 $ spread ($) [(# delay "0.2"), (# speed "0.8"), (# speed "1 2"), (jux (slow 2))] $ sound "ebass*4" # begin 0.5
