d1 $ every 8 (superimpose (const $ sound "yow*4")) $ superimpose (|-| speed (scale 0.8 1.8 $ slow 2 $ sine1)) $ palindrome $ chop 2 $ sound "<yow jvbass>*2"
 # speed "1 0.8"
 # gain 1.4

d1 silence

d2 $ every 4 (jux (slow 2 . (# speed "-1"))) $ jux (slow 1.5) $ spread (chop) [2, 1, 4] $ sound "[{sn [sn:1*2]}(3, 4), drum:1*2]"
 # gain 0.9
 # orbit 1
 # room 0.3

solo $ d3 $ slow 2 $ spin 3 $ palindrome $ sound "yow:1*4"
 # speed (run 3)
 |-| speed 0.5
 # accelerate 1
 # gain 1.6

d3 silence

d4 $ slow 4 $ trunc 0.5 $ every 8 (slow 2) $ every 4 (slow 4 . (jux (|-| speed 1))) $ jux (slow 2.5) $ spin 2 $ stut 8 0.9 1 $ sound "tb303*10"
 # speed (irand 3)
 # cutoff (scale 800 2600 $ slow 2 $ sine1)
 # gain (scale 0.7 1.2 $ slow 2 $ sine1)

 d4 silence
