d1 $ sometimesBy 0.25 (superimpose (# speed "<2 3>"))
 $ every 4 (# begin 0.25) $ brak $ s "[bleep:1*2, bass:1]"
 # gain 1.5

solo $ d2 $ every 8 (# gain 0)
 $ jux (slow 4 . (chop 4)) $ every 4 (0.5 ~>) $ s "[bd*2, <can can:1>*8, cp, sn:1*2, [cb8 hh]*2]"
 # speed (scale 0.9 1.1 $ slow 2 $ sine1)

hush
