d1 $ stack [
 jux (slow 1.5) $ n "c c3 <e f>" # s "supermandolin" # gain 1.2,
 slow 2 $ jux rev $ n "<f c>" # s "supercomparator" # coarse 10 # gain (scale 0.7 1 $ slow 4 $ sine1)
 ]
 # legato 1.3

d2 silence

hush
