d1 $ palindrome $ striate 2 $ weave 3 (s "t*4" # n "2 1")
  [speed "0.8 0.6 0.6 1",
  degrade $ speed "1 1.2 1.8 1.4",
  speed "2"
  ]
  |+| delay "0.3"
  |+| room "0.2"
  |+| gain "0.9"

d1 $ jux (slow 1.5 . (|+| speed "1.5")) $ sound "jvbass*4"

d2 $ every 32 (const $ sound "sn:1*16") $ jux (density 1.5) $ sound "sn:2 drum cp drum:2"
|+| speed "0.9"
|+| gain "1.2"

d3 $ stut 2 0.8 0.6 $ sound "hh*4"
|+| gain "1.2"

d4 $ sound "hh:1*2"
|+| speed "0.5"
|+| delay "0.6"
