-- https://tidalcycles.org/docs/reference/synthesizers

d1 $ n (slow 2 $ fmap (*7) $ run 8)
  # s "supergong"
  # decay "[1 0.2]/4"
  # voice "[0.5 0]/8"

d2 $ n "1 2"
 # s "supersquare"
 # voice "0.7"
 # decay "0.9"
 # semitone "0.3"
 # resonance "0.6"

d3 $ n "c*2"
 # s "superchip"
 # slide "0.4"
 # rate "<0.5 1>"
 # voice "0.5"

hush
