setcps 0.75

d1 $ jux (slow 2 . (# up "-1")) $ s "arpy*8"
  # lpf (range 200 3000 $ sine)
  # lpq 0.2
  # speed "[1 0.8 0.4 0.6]*2"
  # up "1"

d2 $ fast 1.5 $ jux rev $ s "sn:1 ~ bd(1,2) ~"

d2 silence

hush
