setcps 2

d1 $ jux rev $ s "supersquare*2" # n "a d"
 # sustain 0.4
 # gain "0.65"

d2 $ spin 2 $ rev $ s "superpiano*2" # n "<-c d>"
 # sustain 0.8
 # gain "<0.8 0.7 0.6>"
 # room 0.3

d3 silence

d3 $ every 4 (jux (density "1.5")) $ every 4 (rev) $ slow 4 $ sound "[bd bd sn:5] [bd sn:3]"
 # speed "0.6"
 # sustain "0.2"
 # pan "-0.75 0.75"

unsolo 3

hush
