-- Uze more synth effect or different synth def. Keep d2 low volume

d1 $ jux rev $ s "superchip*2" # n "-c e"
 # sustain 0.4
 # gain 0.6

d2 $ rev $ s "superchip*2" # n "<-f f>"
 # sustain 0.8
 # gain "<0.8 0.7 0.6>"
 # room 0.3

d2 silence

d3 $ every 4 (jux rev) $ fast 2 $ every 2 (chop 2) $ sound "sn:1 bd:1"
 # pan "1 0 -1"
 # gain 1.1

d3 silence

 hush
